X:21
T:Seven Stars. Ru1.021
%%VWML:RutherfordVol1-2248-p11-0p11
Z:Transcription by Village Music Project, Steve Mansfield July 2015
F:http://www.village-music-project.org.uk/
F:http://www.vwml.org/record/RutherfordVol1/2248/p11
L:1/8
W:The first man sets to the 2d Wo. & turns her .|
W:The same to the 2d Man :| Cross over two Cu. :|.
W:Lead up to the Top Foot it & cast off :||: Foot it
W:Corners & turn Foot it the other Corners & turn :||
W:Lead out each side & turn your Partner :|
Q:3/8=90
K:D
|:d2A A2F | GAB A3 | Bcd efg | fed cBA |
d2A A2F | GAB A3 | Bcd efg | Adc d3 :|
|: e2A A2f | efg Tf3 | efg fed | cde A3 |
BGB AFA | BGB AFA | Bcd cde | Adc d3 :|
T:Strath Spay Reel. Ru1.022
B:Rutherford's Country Dances Vol 1, 1756
Z:village music project, Steve Mansfield July 2015
M:C|
L:1/8
R:Reel
W:The first & 2d Cu. Foot it all four and Hands
W:Across quite round .| The same back again :|
W:Gallop down the Middle up again & cast off .|.
W:Lead through the Bottom & Lead through the Top
W:And cast off :||: Foot it Corners & turn :|| Foot it
W:The other Corners & turn :||. Lead out each side and
W:Turn your Partner :|
Q:2/4=80
N:NB g in Mss, amended to balance bar lengths
K:D
|:d | AF F/F/F AFFG | F2 D/D/D ECCE | AF F/F/F AEEc | dDDC D2D :|
"NB"g | fd d/d/d g2ga | fd d/d/d e2-eg | fd d/d/d g2ga | fdec d2d :|
